assets/icons/Discover.svg

<svg width="32" height="32" viewBox="0 0 32 32" fill="none" xmlns="http://www.w3.org/2000/svg">
<path fill-rule="evenodd" clip-rule="evenodd" d="M15.481 15.1013C15.9771 14.8149 16.6122 14.9851 16.8986 15.4811C17.185 15.9772 17.0149 16.6123 16.5188 16.8987C16.0227 17.1851 15.3876 17.015 15.1012 16.5189C14.8148 16.0228 14.985 15.3877 15.481 15.1013ZM17.7272 18.9918L10.0163 19.4546L14.2726 13.0082L21.9835 12.5454L17.7272 18.9918ZM23.1527 11.2269L13.8876 11.783C13.6907 11.7948 13.5127 11.8976 13.4041 12.0622L8.28988 19.8079C8.16037 20.0049 8.15326 20.2583 8.27104 20.4623C8.38883 20.6663 8.61179 20.7868 8.84715 20.7731L18.1123 20.217C18.2104 20.2106 18.304 20.1818 18.3867 20.134C18.4694 20.0863 18.5412 20.0197 18.5958 19.9379L23.7099 12.1921C23.8395 11.9951 23.8466 11.7417 23.7288 11.5377C23.611 11.3337 23.388 11.2132 23.1527 11.2269ZM20.8773 24.4478C16.2184 27.1376 10.2414 25.5354 7.55208 20.8774C4.86279 16.2194 6.46366 10.242 11.1226 7.55217C15.7814 4.86236 21.7585 6.46465 24.4477 11.1226C27.137 15.7806 25.5362 21.758 20.8773 24.4478ZM10.4999 6.47372C5.24698 9.50651 3.44085 16.2471 6.47363 21.5C9.50642 26.7529 16.247 28.5591 21.4999 25.5263C26.7528 22.4935 28.559 15.7529 25.5262 10.5C22.4934 5.24707 15.7528 3.44094 10.4999 6.47372Z" fill="#FF7643"/>
</svg>

<?xml version="1.0" encoding="utf-8"?>
<!-- Generator: Adobe Illustrator 27.2.0, SVG Export Plug-In . SVG Version: 6.00 Build 0)  -->
<svg version="1.1" id="Layer_1" xmlns="http://www.w3.org/2000/svg" xmlns:xlink="http://www.w3.org/1999/xlink" x="0px" y="0px"
	 viewBox="0 0 32 32" style="enable-background:new 0 0 32 32;" xml:space="preserve">
<style type="text/css">
	.st0{fill-rule:evenodd;clip-rule:evenodd;fill:#FF7643;}
</style>
<path class="st0" d="M15.5,15.1c0.5-0.3,1.1-0.1,1.4,0.4c0.3,0.5,0.1,1.1-0.4,1.4c-0.5,0.3-1.1,0.1-1.4-0.4S15,15.4,15.5,15.1z
	 M17.7,19L10,19.5l4.3-6.4l7.7-0.5L17.7,19z M23.2,11.2l-9.3,0.6c-0.2,0-0.4,0.1-0.5,0.3l-5.1,7.7c-0.1,0.2-0.1,0.5,0,0.7
	c0.1,0.2,0.3,0.3,0.6,0.3l9.3-0.6c0.1,0,0.2,0,0.3-0.1c0.1,0,0.2-0.1,0.2-0.2l5.1-7.7c0.1-0.2,0.1-0.5,0-0.7
	C23.6,11.3,23.4,11.2,23.2,11.2z M20.9,24.4c-4.7,2.7-10.6,1.1-13.3-3.6c-2.7-4.7-1.1-10.6,3.6-13.3c4.7-2.7,10.6-1.1,13.3,3.6
	C27.1,15.8,25.5,21.8,20.9,24.4z M10.5,6.5c-5.3,3-7.1,9.8-4,15c3,5.3,9.8,7.1,15,4s7.1-9.8,4-15C22.5,5.2,15.8,3.4,10.5,6.5z"/>
</svg>
